X: 41964
T: Wallop The Potlid
R: jig
M: 6/8
K: Gmajor
~F3 DFA|BAF dAG|~F3 DFA|BAG FGE|
~F3 DFA|BAF d2 e|fed edB|BAF AFE|

